X:0801
T:Niel Gow.
S:Aird v5 p1
M:C|
L:1/8
Q:1/2=90 "Moderato"
I: :: :|
Z:Jack Campin * www.campin.me.uk * 2009
K:G
e|d>Bgd  eAAe|d<Bgd e2(ef)|(g/f/e/d/) gd eAAe|gedB G2G:|
A|G<GG<G AEEA|G<GBd g>deg | dgBg         AEEf|gedB G2G:|
<end>
<start>
